!!!!SEGMENT: pl-wnifc--6823-n_gall-jan-karol--dziewcze-z-buzia-jak-malina-op-1-no-3.krn
!!!cenid: 18xx:4058
!!!COM: Gall, Jan Karol
!!!COM-rismID: pe50042628
!!!CDT: 1856-1912
!!!CNT: Polish
!!!OTL: Dziewczę z buzią jak malina Op. 1 No. 3
!!!PDT: 1888
!!!AGN:
!!!SMS-siglum: PL-Wnifc
!!!SMS-shelfmark: 6823/n
!!!SMS-shelfwork: W
!!!SMS-variant:
!!!SMS-altvar:
!!!NIFC-rismSourceID: 1001153080
!!!NIFC-rismChildID: 1001153080
!!!NIFC-islandoraID: nifc:213751
!!!URL-pdf-islandora: https://repozytorium.nifc.pl/islandora/object/nifc%3A213751/datastream/PDF/view
!!!URL-scan: https://polish.musicsources.pl/pl/lokalizacje/galeria/druki-muzyczne/16940-dziewcze-z-buzia-jak-malina/2 @EN{Scan on Polish Music Sources Website} @PL{Skany w portalu Dziedzictwo Muzyki Polskiej w otwartym dostępie}
!!!ONB-nifc:
!!!OMD: Allegretto.
!!!AIN: 1 piano 1 vox
!!!key: E-
**kern	**kern	**dynam	**kern	**text	**text
*part2	*part2	*part2	*part1	*part1	*part1
*staff3	*staff2	*	*staff1	*staff1	*staff1
*>[A,A1,A,A2,B]	*>[A,A1,A,A2,B]	*	*>[A,A1,A,A2,B]	*	*
*>A	*>A	*	*>A	*	*
*I"Fortepian.	*I"Fortepian.	*	*I"Śpiew.	*	*
*Ipiano	*Ipiano	*	*Ivox	*	*
*ICklav	*ICklav	*	*ICvox	*	*
*IGacmp	*IGacmp	*	*IGsolo	*	*
*clefF4	*clefG2	*	*clefG2	*	*
*k[b-e-a-]	*k[b-e-a-]	*	*k[b-e-a-]	*	*
*E-:	*E-:	*	*E-:	*	*
*M4/4	*M4/4	*	*M4/4	*	*
*met(c)	*met(c)	*	*met(c)	*	*
=1	=1	=1	=1	=1	=1
4EE-/	4r	p	1r	.	.
4r	4e- 4B- 4G/	.	.	.	.
2r	4g 4e- 4B-/	.	.	.	.
.	4r	.	.	.	.
=2	=2	=2	=2	=2	=2
4EE-/	4r	.	1r	.	.
4r	4e- 4B- 4G/	.	.	.	.
2r	4g 4e- 4B-/	.	.	.	.
.	4r	.	.	.	.
=3!|:	=3!|:	=3!|:	=3!|:	=3!|:	=3!|:
*	*	*	*	*v:1	*v:2
4EE-/	4r	.	4b-\	Dziew-	Chciał-
4r	4e- 4B- 4G/	.	4b-\	-czę	-bym
2r	4g 4e- 4B-/	.	8d/	z_bu-	zło-
.	.	.	8e-/	-zią.	-żyć
.	4r	.	8cc\	jak	na
.	.	.	8g/	ma-	twem
=4	=4	=4	=4	=4	=4
4EE-/	4r	.	4b-\	-li-	ło-
4r	4e- 4B- 4G/	.	4b-\	-na,	-nie,
2r	4g 4e- 4B-/	.	4r	.	.
.	4r	.	8d/	Two-	Roz-
.	.	.	8e-/	-je	-ma-
!!LO:LB:g=original
=5	=5	=5	=5	=5	=5
4C/	4r	.	4.ee-\	o-	-rzo-
4r	4e- 4c 4G/	.	.	.	.
.	.	.	8dd\	-czy	-ną
2r	4g 4e- 4c/	.	4cc\	giw-	mo-
.	4r	.	4g/	-zdy	-ją
=6	=6	=6	=6	=6	=6
4FF/	4r	.	2a-/	dwie,	skroń,
4r	4f 4c 4A-/	.	.	.	.
2r	4a- 4f 4c/	.	4r	.	.
.	4r	.	8cc\	Ty	W_po-
.	.	.	8cc\	dzie-	-ca-
=7	=7	=7	=7	=7	=7
4EEn/	4r	.	4.dd-X\	-wecz-	-łun-
4r	4c 4B- 4G/	.	.	.	.
.	.	.	8cc\	-ko,	-kach
4CC/	4r	.	4cc\	lu-	o-
4r	4g 4en 4c 4B-/	.	4g/	-ba,	-blać
=8	=8	=8	=8	=8	=8
4FF/	4r	.	4a-/	ma-	łza-
4r	4f 4c 4A-/	.	4a-/	-ła,	-mi
2r	4a- 4f 4c/	.	4r	.	.
.	4r	.	8g/	O-	Chciał-
.	.	.	8f/	-pę-	-bym
!!LO:LB:g=original
=9	=9	=9	=9	=9	=9
4DD/	4r	.	4.b-\	-ta-	two-
4r	4B- 4A- 4F/	.	.	.	.
.	.	.	8cc\	-łaś	-ją
4BBB-/	4r	.	4b-\	my-	dro-
4r	4f 4d 4B- 4A-/	.	4f/	-śli	-bną
=10	=10	=10	=10	=10	=10
4EE-/	4r	.	2g/	me!...	dłoń!...
4r	4e- 4B- 4G/	.	.	.	.
2r	4g 4e- 4B-/	.	4r	.	.
.	4r	.	4B-/	Ach,	Ach,
=11	=11	=11	=11	=11	=11
4EE-/	4r	.	4.b-\	dłu-	dziew-
4r	4e- 4B- 4G/	.	.	.	.
.	.	.	8b-\	-gi	-czę
2r	4g 4e- 4B-/	.	8d/	wie-	z_bu-
.	.	.	8e-/	-czór	-zią
.	4r	.	8cc\	dziś	jak
.	.	.	8g/	zi-	ma-
=12	=12	=12	=12	=12	=12
4EE-/	4r	.	4b-\	-mo-	-li-
4r	4e- 4B- 4G/	.	4b-\	-wy,	-na
2r	4g 4e- 4B-/	.	4r	.	.
.	4r	.	8d/	Rad-	Two-
.	.	.	8e-/	-bym	-je
!!LO:PB:g=original
=13	=13	=13	=13	=13	=13
4C/	4r	.	4.ee-\	z_to-	o-
4r	4e- 4c 4G/	.	.	.	.
.	.	.	8dd\	-bą	-czy
2r	4g 4e- 4c/	.	4cc\	ra-	gwia-
.	4r	.	4g/	-zem	-zdy
=14	=14	=14	=14	=14	=14
4FF/	4r	.	2a-/	być!...	dwie,
4r	4f 4c 4A-/	.	.	.	.
2r	4a- 4f 4c/	.	4r	.	.
.	4r	.	8cc\	Z_to-	Ty
.	.	.	8cc\	-bą	dzie-
=15	=15	=15	=15	=15	=15
4EEn/	4r	.	4.dd-X\	gwa-	-wecz-
4r	4c 4B- 4G/	.	.	.	.
.	.	.	8cc\	-rzyć	-ko
4CC/	4r	.	4cc\	z_to-	lu-
4r	4g 4en 4c 4B-/	.	4g/	-bą	-ba,
=16	=16	=16	=16	=16	=16
4FF/	4r	.	4a-/	ma-	ma-
4r	4f 4c 4A-/	.	4a-/	-rzyć,	-ła,
2r	4a- 4f 4c/	.	4r	.	.
.	4r	.	8cc\	W_ci-	O-
.	.	.	8cc\	-chym	-pę-
!!LO:LB:g=original
=17	=17	=17	=17	=17	=17
4FF#X/	4r	.	4.ee-\	kąt-	-ta-
4r	4d 4c 4An/	.	.	.	.
.	.	.	8dd\	-ku	-łaś
4DD/	4r	.	4dd\	z_to-	my-
4r	4an 4f#X 4d 4c/	.	4an/	-bą	-śli
=18	=18	=18	=18	=18	=18
4GG/	4r	.	2b-\	śnić!...	me,
4r	4g 4d 4B-/	.	.	.	.
2r	4b- 4g 4d/	.	4r	.	.
.	4r	.	8b-\	Z_to-	Ty
.	.	.	8b-\	-bą	dzie-
=19	=19	=19	=19	=19	=19
(4GG/	4r	.	4ff\	ma-	-wecz-
4E-\	4g 4e- 4B-/	.	4ee-\	-rzyć	-ko
4G\)	4b- 4e- 4B-/	.	4b-\	z_to-	lu-
4r	4r	.	4g/	-bą	-ba,
=20	=20	=20	=20	=20	=20
(4AA-/	4r	.	4cc\	gwa-	ma-
4E-\	4cc 4a- 4e-/	.	4cc\	-rzyć,	-ła,
4c\)	4ee- 4a- 4e-/	.	4r	.	.
4r	4r	.	8e-/	W_ci-	O-
.	.	.	8e-/	-chym	-pę-
!!LO:LB:g=original
=21	=21	=21	=21	=21	=21
4FF/	4r	.	4.a-/	kąt-	-ta-
4r	4f 4c 4A-/	.	.	.	.
.	.	.	8g/	-ku	-łaś
4BB-/	4r	.	4f/	z_to-	my-
4r	4d 4B- 4A-/	.	4g/	-bą	-śli
=22	=22	=22	=22	=22	=22
!LO:TX:t=1.	!	!	!	!	!
*>A1	*>A1	*	*>A1	*	*
4EE-/	4r	.	4e-/	śnić!	.
4r	4e- 4B- 4G/	.	4r	.	.
2r	4g 4e- 4B-/	.	2r	.	.
.	4r	.	.	.	.
=23	=23	=23	=23	=23	=23
4EE-/	4r	.	1r	.	.
4r	4e- 4B- 4G/	.	.	.	.
2r	4g 4e- 4B-/	.	.	.	.
.	4r	.	.	.	.
=24:|!	=24:|!	=24:|!	=24:|!	=24:|!	=24:|!
!LO:TX:t=2.	!	!	!	!	!
*>A2	*>A2	*	*>A2	*	*
4EE-/	4r	.	4e-/	.	me!
4r	4e- 4B- 4G/	.	4r	.	.
4r	4g 4e- 4B-/	.	2r	.	.
(4BB-/	4r	.	.	.	.
=25	=25	=25	=25	=25	=25
*>B	*>B	*	*>B	*	*
4EE-/)	4r	.	1r	.	.
!	!LO:TX:b:i:t=espres.	!	!	!	!
4G\	4b-: 4e-: 4B-:/	.	.	.	.
(8D\L	2r	.	.	.	.
8E-\	.	.	.	.	.
8c\	.	.	.	.	.
8G\J	.	.	.	.	.
!!LO:LB:g=original
=26	=26	=26	=26	=26	=26
2B-\)	4r	.	1r	.	.
.	4b- 4e- 4B-/	.	.	.	.
4GG/	4r	.	.	.	.
4r	(8d/L	.	.	.	.
.	8e-/J	.	.	.	.
=27	=27	=27	=27	=27	=27
(4C/	4.ee-\	.	1r	.	.
4G\	.	.	.	.	.
.	8dd\	.	.	.	.
4e- 4c\)	4cc\	.	.	.	.
4r	4g/	.	.	.	.
=28	=28	=28	=28	=28	=28
(4FF/	2.a-/)	.	1r	.	.
4C/	.	.	.	.	.
4A- 4F\)	.	.	.	.	.
4r	8cc\L	.	.	.	.
.	8cc\J	.	.	.	.
=29	=29	=29	=29	=29	=29
(4EEn/	(4.dd-X\	.	1r	.	.
4C/	.	.	.	.	.
.	8cc\	.	.	.	.
4B- 4G\)	4cc\	.	.	.	.
4r	4g/	.	.	.	.
=30	=30	=30	=30	=30	=30
*	*^	*	*	*	*
(4FF/	4a-/)	4r	.	1r	.	.
4C/	2a-/	2c\	.	.	.	.
4A- 4F\)	.	.	.	.	.	.
4r	8g/L	8ryy	>	.	.	.
.	8f/J	8ryy	.	.	.	.
=31	=31	=31	=31	=31	=31	=31
(4BBB-/	(4.b-/	2.d\	.	1r	.	.
4BB-/	.	.	.	.	.	.
.	8cc/	.	.	.	.	.
4A- 4F\)	4b-/)	.	.	.	.	.
4BB- 4BBB-/	(4ff 4dd 4a-\	4ryy	] pp	.	.	.
*	*v	*v	*	*	*	*
=32	=32	=32	=32	=32	=32
4G: 4BB-: 4EE-:/	4ee- 4b- 4e-/)	.	1r	.	.
4EEE-/	4r	.	.	.	.
2r	2r	.	.	.	.
==	==	==	==	==	==
*-	*-	*-	*-	*-	*-
!!!system-decoration: <vox>{(klav)}
!!!ENC: Berenika Jozajtis
!!!END: 2022-08-15
!!!ENC: Andrzej Kubiczek
!!!END: 2022-09-16
!!!YEC: Copyright 2022 Narodowy Instytut Fryderyka Chopina (https://polishscores.org)
!!!YEM: License CC-BY-4.0 (https://creativecommons.org/licenses/by/4.0)
